X: 512
T: Tremouliastos
C:Greece
B: incoming
M:2/4
L:1/16
Q: 1/4=120
K:G
V:1 
%%MIDI program 22 % Harmonica
B3G A2G z | B2AB GFGA | B3G A2G z | FGA2 A4 :|
A2d2 A2B2 | AGFG A4 | A2dc BAB2 | AGFG A4 |
A2dc BAB2 | AGFG A2Bc | decd BcAB | AGFG A2 |] 
% abcbook-tune_id 63cb08437999b6161d1ba9ef
% abcbook-tune_composer_id 
% abcbook-boost 0
% abcbook-difficulty 0
% abcbook-tags balkan dances
% abcbook-tablature 
% abcbook-transpose 
% abcbook-tuning 
% abcbook-lastupdated 1674250307968
% abcbook-soundfonts 
% abcbook-repeats 1


